X: 41294
T: Tumbleweed, The
R: polka
M: 2/4
K: Gmajor
|:G>B AG|EG DE|GD EG|BA A2|G>B AG|EG DE|GD EG|AG G2:|
|:FG AD|GAD2|FG AF|GB AG|FG AD|GA DA|BG AF|G2 G2:|
|:d>B AG|EG DE|GD EG|BA A2|d>B AG|EG DE|GD EG|AG G2:|
|:g>e dB|AG E2|g>e de|ge ba|ge dB|AG AB|^cd ef|g2 g2:|

